X: 2
T: Snake In The Cupboard
R: jig
M: 6/8
L: 1/8
K: Bmin
B2f fed |efe edc |B2f fef |g3 fed|
B2f fed |efe edc |efe edc |a3 edc :|
ABc dcd |edc dcA |Bcd ede|fed edc|
cde fed |gfe fed |cde cde |cde aec :|
FGF FDD |FGF FDD |EFE EFG| AGF FDD|
FGF FDD | FGF FDD| EFE EFG| FGA Bcf :|
